icons/english-input.svg

<svg xmlns="http://www.w3.org/2000/svg" width="24" height="24" fill="none"><g clip-path="url(#a)"><path fill="#121212" d="M14 10H16V10.757C16.6777 10.3042 17.4656 10.044 18.2796 10.0041C19.0936 9.96414 19.9032 10.146 20.6219 10.5303C21.3406 10.9147 21.9415 11.4869 22.3603 12.1861C22.7791 12.8852 23.0002 13.685 23 14.5V20H21V14.5C21 13.07 19.825 12 18.5 12C17.175 12 16 13.07 16 14.5V20H14V10ZM12 4V6H4V11H12V13H4V18H12V20H2V4H12Z"/></g><defs><clipPath id="a"><rect width="24" height="24" fill="white"/></clipPath></defs></svg>

<svg width="24" height="24" fill="none" xmlns="http://www.w3.org/2000/svg"><g clip-path="url(#a)"><path d="M14 10h2v.757a4.5 4.5 0 0 1 7 3.743V20h-2v-5.5c0-1.43-1.175-2.5-2.5-2.5S16 13.07 16 14.5V20h-2V10Zm-2-6v2H4v5h8v2H4v5h8v2H2V4h10Z" /></g><defs><clipPath id="a"><path fill="#fff" d="M0 0h24v24H0z"/></clipPath></defs></svg>
